svgs/sharp-solid/landmark-dome.svg

<svg xmlns="http://www.w3.org/2000/svg" viewBox="0 0 512 512"><!--! Font Awesome Pro 6.6.0 by @fontawesome - https://fontawesome.com License - https://fontawesome.com/license (Commercial License) Copyright 2024 Fonticons, Inc. --><path d="M288 0L224 0l0 34.7C143.6 48.1 80.1 111.6 66.7 192L64 192l-32 0 0 64 32 0 384 0 32 0 0-64-32 0-2.7 0C431.9 111.6 368.4 48.1 288 34.7L288 0zM0 464l0 48 512 0 0-48-64-48 0-128-64 0 0 128-40 0 0-128-64 0 0 128-48 0 0-128-64 0 0 128-40 0 0-128-64 0 0 128L0 464z"/></svg>

<svg xmlns="http://www.w3.org/2000/svg" viewBox="0 0 512 512"><!--! Font Awesome Pro 6.4.0 by @fontawesome - https://fontawesome.com License - https://fontawesome.com/license (Commercial License) Copyright 2023 Fonticons, Inc. --><path d="M288 0H224V34.7C143.6 48.1 80.1 111.6 66.7 192H64 32v64H64 448h32V192H448h-2.7C431.9 111.6 368.4 48.1 288 34.7V0zM0 464v48H512V464l-64-48V288H384V416H344V288H280V416H232V288H168V416H128V288H64V416L0 464z"/></svg>
